X: 060
T: Morning Post
B: 204 Favourite Country Dances
N: Published by Straight & Skillern, London ca.1775
F: http://imslp.org/wiki/204_Favourite_Country_Dances_(Various) p.30 #60
Z: 2014 John Chambers <jc:trillian.mit.edu>
M: 2/4
L: 1/8
K: A
% - - - - - - - - - - - - - - - - - - - - - - - - -
|:\
Aaec | dBAG | AcBA | GFEG |\
Aaec | dBAG | cBAG | A2A,2 :|
|:\
CECE | DFDF | GBGE | AFED |\
CECE | DFDF | cedB | A2A,2 :|
% - - - - - - - - - - - - - - - - - - - - - - - - -
%%begintext align
%% Hands across back again cross over
%% 2 Cu. lead up & cast off
%%endtext

%%sep 1 1 500
%%sep 1 1 500
